icons/1_Primary/Sync.com.svg

<svg xmlns="http://www.w3.org/2000/svg" viewBox="0 0 1024 1024">
   <circle cx="512" cy="512" r="512" style="fill:#00adef"/>
   <path d="M785.5 509.9c-.6-35.1-14.9-68.6-39.9-93.2l-1.5-1.3c-22-21-50.5-34-80.8-36.8C648 307.2 585 256.2 512 256c-48-.4-93.4 21.8-122.6 59.9-14.1 18.5-23.9 39.9-28.6 62.7-30.3 2.9-58.8 16.1-80.7 37.3l-1.6 1.5c-24.9 24.4-39.2 57.6-39.9 92.4v5.3c.9 33.7 14.5 65.8 38.1 89.9l2 2.1c22.1 22.1 51.3 35.8 82.4 38.8 18 83.5 100.2 136.6 183.7 118.6 59.4-12.8 105.8-59.2 118.6-118.6 31.3-2.9 60.5-16.7 82.7-38.9l1.7-1.9c23.6-24.3 37.1-56.7 37.7-90.5v-4.7zm-66.6 68.5c-16.4 16.1-38.1 25.6-61 26.6-.8-11.2-2.8-22.2-6.1-32.9l1.5-2.1c16 .1 31.4-6.5 42.3-18.2 12.5-11.3 20.1-27 21.2-43.8 1-14.3-4.2-28.4-14.1-38.8-12.7-10.6-28.4-17-44.9-18.4-16.9-1.1-33.5 5.4-45.1 17.7h-1.3c-1.2 1.2-2.9 2.5-4 3.7l14.6 11.3-65.4 22 4.7-68.8 17 13.3c22.4-37.1 10.5-85.3-26.6-107.7-37.1-22.4-85.3-10.5-107.7 26.6-20.7 34.3-12.3 78.7 19.6 103 12.5 8.2 25.9 15.1 39.9 20.4 28.9 11.6 58.9 16.1 82.8 37.6 46.7 41.8 50.6 113.5 8.9 160.2-39.3 43.9-105.6 50.4-152.7 15-30.9-24.8-46.2-64.3-39.9-103.5-8 2.9-16.5 4.3-25 4.1v2.7-3.4c-25.5-.3-50.1-9.7-69.2-26.6h-.8c-18.1-17.4-28.3-41.5-28.1-66.6 0-24.4 9.6-47.7 26.6-65.1v.8c15.9-15.8 37-25.3 59.4-26.6.8 10.7 2.7 21.4 5.7 31.7-14.7.9-28.5 7.5-38.5 18.4-11.1 10-17.7 23.9-18.5 38.8-.6 15.4 4.8 30.5 15 42.1 10.9 11.2 25.6 17.7 41.1 18.4 16.1.6 31.8-5.5 43.4-16.6h.8c1.2-1 2.4-2.2 3.5-3.3l-15.4-10.8 65-21.2-4.3 68.6-17.8-13.3c-23.4 36.6-12.6 85.1 23.9 108.5C506 705.3 554.6 694.6 578 658c21.9-34.3 14-79.7-18.3-104.6-3.6-2.6-7.4-5-11.3-7.2-34.1-17.7-74.6-23-106.5-46.2-48.8-40-56-111.9-16.1-160.8 38.5-47.1 107.2-55.7 156.2-19.7 32.2 24.1 49.5 63.3 45.7 103.3 9.7-2.9 19.8-4.4 30-4.4 23.8.4 46.5 10 63.5 26.6h-1.3c17 17.4 26.6 40.8 26.6 65.1.4 25-9.6 49.1-27.6 66.6v1.7z" style="fill:#fff"/>
</svg>

<svg width="1024" height="1024" viewBox="0 0 1024 1024" fill="none" xmlns="http://www.w3.org/2000/svg">
<g clip-path="url(#clip0_2_3588)">
<path d="M512 1024C794.77 1024 1024 794.77 1024 512C1024 229.23 794.77 0 512 0C229.23 0 0 229.23 0 512C0 794.77 229.23 1024 512 1024Z" fill="#9ABEFF"/>
<path d="M785.5 509.9C784.9 474.8 770.6 441.3 745.6 416.7L744.1 415.4C722.1 394.4 693.6 381.4 663.3 378.6C648 307.2 585 256.2 512 256C464 255.6 418.6 277.8 389.4 315.9C375.3 334.4 365.5 355.8 360.8 378.6C330.5 381.5 302 394.7 280.1 415.9L278.5 417.4C253.6 441.8 239.3 475 238.6 509.8V515.1C239.5 548.8 253.1 580.9 276.7 605L278.7 607.1C300.8 629.2 330 642.9 361.1 645.9C379.1 729.4 461.3 782.5 544.8 764.5C604.2 751.7 650.6 705.3 663.4 645.9C694.7 643 723.9 629.2 746.1 607L747.8 605.1C771.4 580.8 784.9 548.4 785.5 514.6V509.9ZM718.9 578.4C702.5 594.5 680.8 604 657.9 605C657.1 593.8 655.1 582.8 651.8 572.1L653.3 570C669.3 570.1 684.7 563.5 695.6 551.8C708.1 540.5 715.7 524.8 716.8 508C717.8 493.7 712.6 479.6 702.7 469.2C690 458.6 674.3 452.2 657.8 450.8C640.9 449.7 624.3 456.2 612.7 468.5H611.4C610.2 469.7 608.5 471 607.4 472.2L622 483.5L556.6 505.5L561.3 436.7L578.3 450C600.7 412.9 588.8 364.7 551.7 342.3C514.6 319.9 466.4 331.8 444 368.9C423.3 403.2 431.7 447.6 463.6 471.9C476.1 480.1 489.5 487 503.5 492.3C532.4 503.9 562.4 508.4 586.3 529.9C633 571.7 636.9 643.4 595.2 690.1C555.9 734 489.6 740.5 442.5 705.1C411.6 680.3 396.3 640.8 402.6 601.6C394.6 604.5 386.1 605.9 377.6 605.7V608.4V605C352.1 604.7 327.5 595.3 308.4 578.4H307.6C289.5 561 279.3 536.9 279.5 511.8C279.5 487.4 289.1 464.1 306.1 446.7V447.5C322 431.7 343.1 422.2 365.5 420.9C366.3 431.6 368.2 442.3 371.2 452.6C356.5 453.5 342.7 460.1 332.7 471C321.6 481 315 494.9 314.2 509.8C313.6 525.2 319 540.3 329.2 551.9C340.1 563.1 354.8 569.6 370.3 570.3C386.4 570.9 402.1 564.8 413.7 553.7H414.5C415.7 552.7 416.9 551.5 418 550.4L402.6 539.6L467.6 518.4L463.3 587L445.5 573.7C422.1 610.3 432.9 658.8 469.4 682.2C506 705.3 554.6 694.6 578 658C599.9 623.7 592 578.3 559.7 553.4C556.1 550.8 552.3 548.4 548.4 546.2C514.3 528.5 473.8 523.2 441.9 500C393.1 460 385.9 388.1 425.8 339.2C464.3 292.1 533 283.5 582 319.5C614.2 343.6 631.5 382.8 627.7 422.8C637.4 419.9 647.5 418.4 657.7 418.4C681.5 418.8 704.2 428.4 721.2 445H719.9C736.9 462.4 746.5 485.8 746.5 510.1C746.9 535.1 736.9 559.2 718.9 576.7V578.4Z" fill="white"/>
</g>
<defs>
<clipPath id="clip0_2_3588">
<rect width="1024" height="1024" fill="white"/>
</clipPath>
</defs>
</svg>
